X:23
T:23.  Jailbait
C:c 2003 Harry Bolick  
R:Breakdown
O:United States
A:Hastings On Hudson, New York
M:2/4
L:1/8
Q:200
K:ADor
 |: "Am"  EE E/2F/2G |zA A/2G/2E/2D/2| EE G/2E/2D | CE D2|
EE E/2F/2G |zA A/2G/2E/2D/2| EE G/2E/2D | CE D2:|
|:"C" Cc c/2B/2A |"D" Fd d/2c/2A | "C" Cc cA/2B/2 |"D" c/2B/2A/2G/2 E<C | "C" Cc c/2B/2A |
"D" Fd d2 |"G" gg/2a/2 ge/2g/2 | a/2g/2e/2d/2 c/2B/2A:|
